X:2383
T:Polska efter Per Myhr
S:efter Per Myhr
O:Glöte, Härjedalen
B:EÖ, nr 700
R:Polska
Z:Nils L
M:3/4
L:1/8
K:A
f>e dc BA | d>c BA GA | EA GB Ac | Bd (3cBA GA |
f>e dc BA | d>c BA GA | EA GB Ac | (3BAG A4 ::
K:E
(3Bcd ee ff | gg aa gg | (3fgf (3efe df | (3ege B4 |
(3Bcd ee ff | gg aa gg | (3fgf (3efe d>f | {/f/}e2 e4 ::
K:A
a>f d>e c>d | B>d (3cBA (GA) | E>A G>B A>c | B>d (3cBA (GA) |
a>f (3.d.f.d (3.c.e.c | (3.B.d.B (3.A.c.A (GA) | E>A .G.B .A.c | (3BAG A4 |
(:musicend:)
(:music:)
